X: 1081
T: Miss Stewart's Reel
%R: reel
B: Niel Gow & Sons "A Collection of Strathspey Reels, etc." v.1 p.8 #1
Z: 2022 John Chambers <jc:trillian.mit.edu>
M: C|
L: 1/8
K: Amix
% - - - - - - - - - -
% Voice 1 reformatted for 2 6-bar lines, for compactness and proofreading.
V: 1 staves=2
e |\
A<AcA eAcA | G<GBG dGBg | A<AcA eAcA | Eaef cAA :| B | Aa^ga daca | B=gdg BGGB |
Aa^ga eaca | faef cAAB || Aa^ga eaca | B=gdg BGGB | A<AcA dBcA | Eaef cAA |]
% - - - - - - - - - -
% Voice 2 preserves the staff layout in the book.
V: 2 clef=bass middle=d
z | a2a2 a2a2 | g2g2 g2g2 | a2a2 a2a2 | e2e2 a2A :| z |
a2a2 a2a2 | g2g2 g2g2 | a2a2 a2a2 | e2e2 a2a2 || a2a2 a2a2 |
g2g2 g2g2 | a2a2 a2a2 | e2e2 A2A |]


